X:1
T:Fantasie Impromptu
T:Fantasie Impromptu
T:Jacob Koller
C:Jacob Koller
%%score { 1 | 2 }
L:1/8
Q:1/4=160
M:4/4
K:E
V:1 treble nm="Фортепиано" snm="Ф-но"
V:2 bass 
V:1
"^\n" z8 | z8 | z8 |!>(! z8!>)! | z/ (G/A/G/ =G/^G/c/e/ d/c/d/c/ =c/^c/e/g/) | %5
 z/ (G/A/G/ =G/^G/c/e/ d/c/d/c/ =c/^c/e/g/) | %6
 z/ (A/c/d/ f/a/c'/d'/!8va(! b'/a'/g'/f'/ e'/d'/f'/c'/)!8va)! | %7
 (=c'/d'/a/g/ f/a/e/d/ f/c/=c/d/ A/G/B/A/-) | (A/G/A/G/ =G/^G/c/e/ d/c/d/c/ =c/^c/e/g/) | %9
 z/ (G/^A/G/ =G/^G/c/e/ d/c/d/c/ =c/^c/e/g/) | %10
!<(! (d/e/d/=d/ ^d/b/^a/g/ =g/e'/d'/c'/ b/a/^g/=g/)!<)! | %11
!>(! (^a/g/b/=d/) (e/^d/g/^A/) (c/B/d/=G/) (A/^G/=G/^G/)!>)! | %12
!f! G/g/=c/^c/ F/f/=c/^c/ =F/=f/=c/^c/ ^F/^f/=c/^c/ | C/c/F/A/ D/d/F/A/ E/e/G/B/ G/g/B/e/ | %14
 G/g/=c/^c/ F/f/=c/^c/ =F/=f/=c/^c/ ^F/^f/=c/^c/ | =F/=f/B/d/ ^F/^f/B/d/ A/a/B/e/ G/g/B/e/ | %16
 G/g/=c/^c/ F/f/=c/^c/ =F/=f/=c/^c/ ^F/^f/=c/^c/ | C/c/F/A/ D/d/F/A/ E/e/G/B/ G/g/B/e/ | %18
 G/g/=c/^c/ F/f/=c/^c/ d/d'/f/a/ c/c'/f/a/ | c/c'/d/f/ =c/=c'/d/f/ c/c'/d/f/ c/c'/d/f/ | %20
 =c/=c'/d/f/ B/b/d/f/ B/b/d/f/ ^A/^a/d/f/ | ^A/^a/d/f/ =A/=a/d/f/ A/a/d/f/ A/a/d/f/ | %22
 =c/=c'/d/f/ B/b/d/f/ B/b/d/f/ ^A/^a/d/f/ | ^A/^a/d/f/ =A/=a/d/f/ A/a/d/f/ G/g/d/f/ | %24
 z/ G/A/G/ =G/^G/c/e/ d/c/d/c/ =c/^c/e/g/ | z/ G/A/G/ =G/^G/c/e/ d/c/d/c/ =c/^c/e/g/ | %26
 z/ A/c/d/ f/a/c'/d'/!8va(! b'/a'/g'/f'/ e'/d'/f'/c'/!8va)! | %27
 =c'/d'/a/g/ f/a/e/d/ f/c/=c/d/ A/G/B/A/- | A/G/A/G/ =G/^G/c/e/ d/c/d/c/ =c/^c/e/g/ | %29
 z/ G/^A/G/ =G/^G/c/e/ d/c/d/c/ =c/^c/e/g/ | d/e/d/=d/ ^d/b/^a/g/ =g/e'/d'/c'/ b/a/^g/=g/ | %31
 ^a/g/b/=d/ e/^d/g/^A/ c/B/d/=G/ A/^G/=G/^G/ |[M:7/8] [Acg]2 [Acf]2 [Ac^e]3/2[Acf]3/2 | %33
 [Ac]2 [Ad]2 [Ge]3/2[Bg]3/2 | [Acg]2 [Acf]2 [Ac^e]3/2[Acf]3/2 | [A=f]2 [A^f]2 [=ca]3/2[Bg]3/2 | %36
 [Acg]2 [Acf]2 [Ac^e]3/2[Acf]3/2 | [Ac]2 [Ad]2 [Ge]3/2[Bg]3/2 | [Acg]2 [Acf]2 [dbd']3/2[cc']3/2 | %39
 [cgc']2 [^B^b]2 [Bb]3/2[Bb]3/2 | [=c=c']2 [Bb]2 [Bdfb]3/2[^A^a]3/2 | %41
 [^Adf^a]2 [=A=a]2 [Adfa]3/2[Adfa]3/2 | [=c=c']2 [Bb]2 [Bdfb]3/2[^A^a]3/2 | %43
[M:3/4] [^Adf^a]2 [=A=a]2 [Adfa]2 |[M:4/4] [G^Bdg]8 | [E,F,G,C]4 z4 | z4 z2 z F,/G,/ | %47
 z E, [E,F,G,C]>E, z2 z [=G,B,CF]- | [G,B,CF]2 z [=F,A,B,E]3 [A,B,E]F,/[A,B,]/ | %49
 z E, [F,G,C]>E, z4 | z2 z G, E/F/ z/ D/ z/ C/G, | z E, [F,G,C]>E, z2 z [E,F,G,]- | %52
 [E,F,G,]3 [E,F,G,] z4 | z G, A,/G,=G,/ z/ ^G,/C ED/C/ | DC/=C/ z/ ^CG/ z3/2 G/ =g^g | %55
 z2 z/ g/c'/e'/ d'/c'/=c'/g/ f/e/d/=c/ | (3c/d/c/=c/G/ F/E/D/=C/ ^C/F/=C/B,/ z/ ^A,=A,/ | %57
 z/ D/G, F,2 z F,/G,/ A,/=C/D/E/ | D/=C/^C/D/ E/F/G/A/ =c/d/f/g/ z/ df/ | %59
 z/ d/.e !>!G2!<(! (3GGG (3GGG!<)! | (3G=GF (3ED=C (3^CD=C (3G,E,F, | %61
 GC/G/ z/ [Dd]D/ z/ G/[Ee] E[Ff] | G,C/[G,G]/ z/ G,C/ z/ [A,A]/C [=C=c][^C^c] | %63
 [Dd][Cc]/[Dd]/ z/ [Cc][Dd]3/2[Cc][Dd][Cc] | %64
 (3z [dd'][cc'] (3[^A^a][Gg][Ff] (3[Dd][Cc][^A,A] [G,G]2 | z2 z/ G,/C/E/ D/=C/^C/D/ E/F/G/A/ | %66
 =c/d/A/^c/ d/=c/^c/d/ e/f/g/a/ =c'/d'/e'/f'/ |!8va(! g'g'/g'/ z/ g'g'/ z/ c''/f' e'2 | %68
 z/ e'/f'/b'/ ^a'/f'/e'/d'/ (3c'/d'/c'/c'/g/ f/e/f/g/!8va)! | %69
 [cc']/g/f/[=c=c']/ g/e/[Bb]/g/ e/[^A^a]/f/e/ [=A=a]f/[Gg]/ | %70
 z/ d/[Gg] [Ff]c/[Ee]/ z/ c/[Dd] [Cc]2 | z/ =C/G/=c/ ^A/E/G/E/ (3F/G/F/E/D/ ^C/=C/G, | %72
 (3F,F,F, (3F,F,F, (3F,G,E, G,E, | z [C,C][D,D] [F,F]2 [G,G][^A,^A][Cc] | %74
 [Dd][Ff]/[Gg]/ z/ [Aa][=c=c']/ z [^c^c'][dd'][ff'] | %75
 (3[gd'g'][fc'f'][gd'g'] (3[fc'f'][gd'g'][fc'f'] (3[gd'g'][fc'f'][gd'g'] (3[fc'f'][gd'g'][fc'f'] | %76
 (3[gd'g'][fc'f'][gd'g'] (3[fc'f'][gd'g'][fc'f'] !~(![d'^a'd'']3 !~)!G, | %77
 z E, [F,G,C]>E, z2 z [F,B,CF]- | [F,B,CF]3 [F,G,B,D] z2 [G,B,D]F,/[G,B,D]/ | %79
 z E,[F,G,C]E, z2 z [=G,B,=DF] | z f/=d/ B/=G/=D/B,/!8va(! e'/=c'/a/=f/ e/=c/A/=F/!8va)! | %81
 z E, [F,G,C]>E, z2 z [F,B,CF]- | [F,B,CF]3 F, E/FD/ z/ C/G, | z E, [F,G,C]>E, z2 z [E,F,G,]- | %84
 [E,F,G,]3 [E,F,G,]- [E,F,G,]4 | z/ G/A/G/ =G/^G/c/e/ d/c/d/c/ =c/^c/e/g/ | %86
 z/ G/A/G/ =G/^G/c/e/ d/c/d/c/ =c/^c/e/g/ | %87
 z/ A/c/d/ f/a/c'/d'/!8va(! b'/a'/g'/f'/ e'/d'/f'/c'/!8va)! | %88
 =c'/d'/a/g/ f/a/e/d/ f/c/=c/d/ A/G/B/A/- | A/G/A/G/ =G/^G/c/e/ d/c/d/c/ =c/^c/e/g/ | %90
 z/ G/^A/G/ =G/^G/c/e/ d/c/d/c/ =c/^c/e/g/ | d/e/d/=d/ ^d/b/^a/g/ =g/e'/d'/c'/ b/a/^g/=g/ | %92
 ^a/g/b/=d/ e/^d/g/^A/ c/B/d/=G/ A/^G/=G/^G/ |[M:7/8] [Acg]2 [Acf]2 [Ac^e]3/2[Acf]3/2 | %94
 [Ac]2 [Ad]2 [Ge]3/2[Bg]3/2 | [Acg]2 [Acf]2 [Ac^e]3/2[Acf]3/2 | [A=f]2 [A^f]2 [=ca]3/2[Bg]3/2 | %97
 [Acg]2 [Acf]2 [Ac^e]3/2[Acf]3/2 | [Ac]2 [Ad]2 [Ge]3/2[Bg]3/2 | [Acg]2 [Acf]2 [dbd']3/2[cc']3/2 | %100
 [cgc']2 [^B^b]2 [Bb]3/2[Bb]3/2 | [=c=c']2 [Bb]2 [Bdfb]3/2[^A^a]3/2 | %102
 [^Adf^a]2 [=A=a]2 [Adfa]3/2[Adfa]3/2 | [=c=c']2 [Bb]2 [Bdfb]3/2[^A^a]3/2 | %104
[M:3/4] [^Adf^a]2 [=A=a]2 [Adfa]2 |[M:4/4] [G^Bdg]8 | G/c/d/g/ G/c/d/g/ G/c/d/g/ G/c/d/g/ | %107
 G/c/d/g/ G/c/d/g/ G/c/d/g/ G/c/d/g/ | G/c/d/g/ G/c/d/g/ G/c/d/g/ G/c/d/g/ | %109
 G/c/d/g/ G/c/d/g/ G/c/d/g/ G/c/d/g/ | G/c/d/g/ G/c/d/g/ G/c/d/g/ G/c/d/g/ | %111
 G/c/d/g/ G/c/d/g/ G/c/d/g/ G/c/d/g/ | G/c/d/g/ G/c/d/g/ G/c/d/g/ G/c/d/g/ | %113
 G/c/d/g/ G/c/d/g/ G/c/d/g/ G/c/d/g/ | G/c/d/g/ G/c/d/g/ G/c/d/g/ G/c/d/g/ | %115
 G/c/d/g/ G/c/d/g/ G/c/d/g/ G/c/d/g/ | G/c/d/g/ G/c/d/g/ G/c/d/g/ G/c/d/g/ | %117
 G/c/d/g/ G/c/d/g/ G/c/d/g/ G/c/d/g/ |{CG,F,} [^E,G,C]8 |] %119
V:2
 [G,,,G,,]8- |!f! [G,,,G,,]8 | (3([C,,C,]G,C (3ECG,) (3(C,G,C (3ECG,) | %3
 (3(C,G,C (3ECG,) (3(C,G,C (3ECG,) |!p! (3(C,G,C (3ECG,) (3(E,G,C (3ECG,) | %5
 (3(C,G,C (3ECG,) (3(E,G,C (3ECG,) | (3(D,A,C (3FCA,) (3(F,CD (3ADC) | %7
 (3(G,,D,F, (3=CF,D,) (3(G,,D,F, (3CF,D,) | (3(C,G,C (3ECG,) (3(E,G,C (3ECG,) | %9
 (3(C,G,^A, (3E^A,G,) (3(E,G,^A, (3C^A,G,) | (3(D,G,B, (3DB,G,) (3(D,^A,C (3=GCA,) | %11
 (3(G,,D,G, (3B,G,D,) (3(G,,D,G, (3B,G,D,) | (3(A,,C,F, (3A,F,C,) (3A,,C,F, (3A,F,C, | %13
 (3B,,F,A, (3B,A,F, (3E,,B,,E, (3G,E,B,, | (3A,,C,F, (3A,F,C, (3A,,C,F, (3A,F,C, | %15
 (3B,,D,A, (3B,A,D, (3E,,B,,E, (3G,E,B,, | (3A,,C,F, (3A,F,C, (3A,,C,F, (3A,F,C, | %17
 (3B,,F,A, (3B,A,F, (3E,,B,,E, (3G,E,B,, | (3A,,C,F, (3A,F,C, (3A,,C,F, (3A,F,C, | %19
 (3G,,D,F, (3=CF,D, (3G,,D,F, (3CF,D, | (3A,,D,F, (3B,F,D, (3^A,,D,F, (3^A,F,D, | %21
 (3=C,D,F, (3A,F,D, (3C,D,F, (3A,F,D, | (3A,,D,F, (3B,F,D, (3^A,,D,F, (3^A,F,D, | %23
 (3B,,D,F, (3A,F,D, (3=C,D,F, (3G,F,D, | [C,,C,] z2 [C,,C,] z2 [C,,C,] z | %25
 [C,,C,] z2 [C,,C,] z2 [C,,C,] z |!8vb(! [D,,,D,,] z2 [D,,,D,,] z2 [D,,,D,,] z | %27
 [G,,,G,,] z2 [G,,,G,,] z2 [G,,,G,,] z | [C,,,C,,] z2 [C,,,C,,] z2 [C,,,C,,] z | %29
 [C,,,C,,] z2 [C,,,C,,] z2 [C,,,C,,] z | [D,,,D,,] z2 [D,,,D,,] z2 [D,,,D,,] z | %31
 [G,,,G,,] z2 [G,,,G,,] z2 [G,,,G,,] z!8vb)! |[M:7/8] [A,,,A,,]2 A,, A,,,A,,3/2A,,3/2 | %33
 [B,,,B,,]2 B,, B,,,[E,,,E,,]3/2E,,3/2 | [A,,,A,,]2 A,, A,,,A,,3/2A,,3/2 | %35
 [B,,,B,,]2 B,, B,,,[E,,,E,,]3/2E,,3/2 | [A,,,A,,]2 A,, A,,,A,,3/2A,,3/2 | %37
 [B,,,B,,]2 B,, B,,,[E,,,E,,]3/2E,,3/2 | [A,,,A,,]2 A,, A,,,A,,3/2A,,3/2 | %39
 [G,,,G,,]2 G,, G,,,G,,3/2G,,3/2 | [A,,,A,,]2 A,, A,,,[^A,,,^A,,]3/2A,,3/2 | %41
 [=C,,=C,]2 C, C,,C,3/2C,3/2 | [A,,,A,,]2 A,, A,,,[^A,,,^A,,]3/2A,,3/2 | %43
[M:3/4] [B,,,B,,]2 B,,B,,, [=C,,=C,]2 |[M:4/4] [G,,,G,,]8 | %45
!8vb(! C,,,2 C,,>C,, E,,,3/2F,,,3/2D,,- | D,,3 E,,2 G,,,2 G,,, | %47
 C,,,2 C,,C,, E,,,3/2F,,,3/2[A,,,A,,] | z A,,A,,,[=G,,,=G,,] z G,,G,,,G,, | %49
 C,,,2 C,,C,, E,,,3/2F,,,3/2D,, | z D,, D,,2 E,,/F,,/ z/ D,,/ z/ C,,/G,,, | %51
 C,,,2 C,,C,, [E,,,E,,]3/2[F,,,F,,]3/2[E,,,E,,] | %52
 z E,,[E,,,E,,][F,,,F,,] [F,,,F,,][F,,,F,,][F,,,F,,][F,,,F,,] | %53
 [C,,,C,,]>C,, z C,, E,,,>E,, z E,, | F,,,>F,, z F,, G,,,2 G,,G,,, | %55
 [C,,,C,,]>C,, z C,, E,,,>E,, z E,, | [F,,,F,,]>F,, z F,, G,,,>G,, z G,,, | %57
 [C,,,C,,]>C,, z C,, E,,,>E,, z E,, | F,,,>F,, z F,, G,,,>G,, z G,,, | %59
 [C,,,C,,]>C,, z C,, (3E,,,2 E,,2 E,,,2 | F,,,>F,, z F,, G,,,>G,, z G,,, | %61
 [C,,,C,,]>C,, z C,, E,,,>E,, z E,, | F,,,>F,, z F,, G,,,>G,, z G,,, | %63
 [C,,,C,,]>C,, z C,, E,,,>E,, z E,, | F,,, z z2 z4 | [C,,,C,,]>C,, z C,, E,,,>E,, z E,, | %66
 F,,,>F,, z F,, G,,,>G,, z G,,, | [C,,,C,,]>C,, z C,, E,,,>E,, z E,, | %68
 F,,,>F,, z F,, G,,,>G,, z G,,, | [C,,,C,,]>C,, z C,, E,,,>E,, z E,, | %70
 F,,,>F,, z F,, G,,,>G,, z G,,, | [C,,,C,,]>C,, z C,, E,,,>E,, z E,, | %72
 F,,,>F,, z F,, G,,,>G,, z G,,, | [C,,,C,,]>C,, z C,, E,,,>E,, z E,, | %74
 F,,,>F,, z F,, G,,,>G,, z G,,, | (3[C,,,C,,]2 C,,2 C,,2 (3[C,,,C,,]2 C,,2 C,,2 | %76
 (3[F,,,F,,]2 F,,2 F,,2 [G,,,G,,]2 G,,2 | [C,,,C,,]2 C,,>C,, [E,,,E,,]3/2[F,,,F,,]3/2[D,,D,]- | %78
 [D,,D,]3 [E,,E,]2 [G,,,G,,]2 [G,,,G,,] | [C,,,C,,]2 C,,>C,, [E,,,E,,]3/2[F,,,F,,]3/2[A,,,A,,] | %80
 z A,, A,,,2 [=G,,,=G,,]3/2G,,3/2G,,, | C,,,>C,, z C,, [E,,,E,,]3/2[F,,,F,,]3/2[D,,D,]- | %82
 [D,,D,]D,, D,,2 E,,/F,,D,,/ z/ C,,/G,,, | C,,,>C,, z C,, [E,,,E,,]3/2[F,,,F,,]3/2[E,,,E,,] | %84
 z E,,[E,,,E,,][F,,,F,,] [F,,,F,,][F,,,F,,][F,,,F,,][F,,,F,,] | [C,,,C,,]2 z2 z2 z/ [C,,,C,,]3/2 | %86
 [C,,,C,,]2 z2 z2 z/ [C,,,C,,]3/2 | [D,,,D,,]2 z2 [D,,,D,,]2 z2!8vb)! | %88
 [G,,,G,,]2 [G,,,G,,]2 [G,,,G,,]2 [G,,,G,,]2 |!8vb(! [C,,,C,,]2 z2 z [C,,,C,,]3/2[C,,,C,,]3/2 | %90
 [C,,,C,,]2 z2 z [C,,,C,,] z2 | [D,,,D,,]2 z2 z [D,,,D,,]3!8vb)! | %92
 [G,,,G,,]3 [G,,,G,,]3 [G,,,G,,]2 |[M:7/8] [A,,,A,,]2 A,, A,,,A,,3/2A,,3/2 | %94
 [B,,,B,,]2 B,, B,,,[E,,,E,,]3/2E,,3/2 | [A,,,A,,]2 A,, A,,,A,,3/2A,,3/2 | %96
 [B,,,B,,]2 B,, B,,,[E,,,E,,]3/2E,,3/2 | [A,,,A,,]2 A,, A,,,A,,3/2A,,3/2 | %98
 [B,,,B,,]2 B,, B,,,[E,,,E,,]3/2E,,3/2 | [A,,,A,,]2 A,, A,,,A,,3/2A,,3/2 | %100
 [G,,,G,,]2 G,, G,,,G,,3/2G,,3/2 | [A,,,A,,]2 A,, A,,,[^A,,,^A,,]3/2A,,3/2 | %102
 [=C,,=C,]2 C, C,,C,3/2C,3/2 | [A,,,A,,]2 A,, A,,,[^A,,,^A,,]3/2A,,3/2 | %104
[M:3/4] [B,,,B,,]2 B,,B,,, [=C,,=C,]2 |[M:4/4] [G,,,G,,]8 | z8 | z8 | z8 | z8 | [G,,G,]8 | %111
 [^A,,^A,]2 [G,,G,]2 [C,C]2 [D,D]2 | [^E,^E]8 | [G,G]8 | [F,F]4 [^E,^E]4 | [D,D]4 [^E,^E]2 [C,C]2 | %116
 [G,,G,]8 | [G,,,G,,]8 | [C,,,C,,]8 |] %119

